public/avatar/shoe/68.svg

<svg xmlns:xlink="http://www.w3.org/1999/xlink" height="38.3" width="36.05" xmlns="http://www.w3.org/2000/svg"><use height="15.9" transform="translate(12.9 12.5)" width="18.65" xlink:href="#a"/><defs><g id="a" fill-rule="evenodd"><path d="M.35-2.15q7.4 1.8 7.4 8.1 0 5.6-7.5 7.25-4.15.95-7.8-.7-3.5-1.55-3.35-3.8.1-2.35 1.55-5.15 1.4-2.9 3.25-4.1Q-2.55-2.9.35-2.15" fill="#033110" transform="translate(10.9 2.35)"/><path d="M5.15 9.3Q.6 13.1-4.7 12.2q-4.45-.7-4.95-3.3-.3-1.5 1.2-5.4Q-7.8 1.8-5.3.2-2-1.95 1.6-.7 4.7.4 6.2 3.65q1.6 3.5-1.05 5.65" fill="#537c2f" transform="translate(10.9 2.35)"/><path d="M4.05 4.4h.3l1.35.4-.15 4-2.3 2.05-.85.15q-1-.9-1.55-2.2Q-.2 6.35 1 5.4q.85-.65 2-.85l1.05-.15" fill="#436526" transform="translate(10.9 2.35)"/><path d="M1.05 4Q-.3 5.95-5.25 5.35L-7.55 5q-1.25-.4-.75-1.8.55-1.05 2.3-2.55 2.75-2.3 5.5-2Q4-.8 5.7 2.95L3.9 2.7Q1.85 2.75 1.05 4" fill="#c78349" transform="translate(10.9 2.35)"/><path d="M1.25 9.5q1.4.8 1.6 1.45l-1.1.55Q.75 9.75-.6 9.2l-2.25-.95 4.1 1.25" fill="#033110" transform="translate(10.9 2.35)"/><path d="m2.5 3.05 3.2-.1L6.75 6.6q0 1.8-2.85 3.7.85-1.7.85-4 0-.9-1.1-2.15L2.5 3.05" fill="#344f1d" transform="translate(10.9 2.35)"/><path d="M2.8-.25q1.45.7 2.9 3.2L4.15 2.9l-1.65.15q-.95-1-2.55-1.25l-4.25-.2Q-6.35-.1-2.6-1.25q2.05-.6 5.4 1" fill="#9e6939" transform="translate(10.9 2.35)"/><path d="m-5.7 7.8.1 1.1-1.55 1.4q-.65.15-1.45-1.1-.35-.6 0-1.9.35-1.4 1.25-1.4l2.3.1q1.3.5 1.5 2.8.15 3.55-2.3 3h-.7l-1.25-.65 2.5-.15q.45 0 .75-1.15.2-1.2-.05-2.15-.5-1.95-2.65-.7-.5.25-.5 1.05.05.8.6.9.75.25 1.45-1.15" fill="#344f1d" transform="translate(10.9 2.35)"/></g></defs></svg>

<?xml version="1.0" encoding="UTF-8" standalone="no"?>
<svg xmlns:xlink="http://www.w3.org/1999/xlink" height="38.3px" width="36.05px" xmlns="http://www.w3.org/2000/svg">
  <g transform="matrix(1.0, 0.0, 0.0, 1.0, 23.8, 14.85)">
    <use height="15.9" transform="matrix(1.0, 0.0, 0.0, 1.0, -10.9, -2.35)" width="18.65" xlink:href="#shape0"/>
  </g>
  <defs>
    <g id="shape0" transform="matrix(1.0, 0.0, 0.0, 1.0, 10.9, 2.35)">
      <path d="M0.35 -2.15 Q7.75 -0.35 7.75 5.95 7.75 11.55 0.25 13.2 -3.9 14.15 -7.55 12.5 -11.05 10.95 -10.9 8.7 -10.8 6.35 -9.35 3.55 -7.95 0.65 -6.1 -0.55 -2.55 -2.9 0.35 -2.15" fill="#033110" fill-rule="evenodd" stroke="none"/>
      <path d="M5.15 9.3 Q0.6 13.1 -4.7 12.2 -9.15 11.5 -9.65 8.9 -9.95 7.4 -8.45 3.5 -7.8 1.8 -5.3 0.2 -2.0 -1.95 1.6 -0.7 4.7 0.4 6.2 3.65 7.8 7.15 5.15 9.3" fill="#537c2f" fill-rule="evenodd" stroke="none"/>
      <path d="M4.05 4.4 L4.35 4.4 5.7 4.8 5.55 8.8 3.25 10.85 2.4 11.0 Q1.4 10.1 0.85 8.8 -0.2 6.35 1.0 5.4 1.85 4.75 3.0 4.55 L4.05 4.4" fill="#436526" fill-rule="evenodd" stroke="none"/>
      <path d="M1.05 4.0 Q-0.3 5.95 -5.25 5.35 L-7.55 5.0 Q-8.8 4.6 -8.3 3.2 -7.75 2.15 -6.0 0.65 -3.25 -1.65 -0.5 -1.35 4.0 -0.8 5.7 2.95 L3.9 2.7 Q1.85 2.75 1.05 4.0" fill="#c78349" fill-rule="evenodd" stroke="none"/>
      <path d="M1.25 9.5 Q2.65 10.3 2.85 10.95 L1.75 11.5 Q0.75 9.75 -0.6 9.2 L-2.85 8.25 1.25 9.5" fill="#033110" fill-rule="evenodd" stroke="none"/>
      <path d="M2.5 3.05 L5.7 2.95 6.75 6.6 Q6.75 8.4 3.9 10.3 4.75 8.6 4.75 6.3 4.75 5.4 3.65 4.15 L2.5 3.05" fill="#344f1d" fill-rule="evenodd" stroke="none"/>
      <path d="M2.8 -0.25 Q4.25 0.45 5.7 2.95 L4.15 2.9 2.5 3.05 Q1.55 2.05 -0.05 1.8 L-4.3 1.6 Q-6.35 -0.1 -2.6 -1.25 -0.55 -1.85 2.8 -0.25" fill="#9e6939" fill-rule="evenodd" stroke="none"/>
      <path d="M-5.7 7.8 L-5.6 8.9 -7.15 10.3 Q-7.8 10.45 -8.6 9.2 -8.95 8.6 -8.6 7.3 -8.25 5.9 -7.35 5.9 L-5.05 6.0 Q-3.75 6.5 -3.55 8.8 -3.4 12.35 -5.85 11.8 L-6.55 11.8 -7.8 11.15 -5.3 11.0 Q-4.85 11.0 -4.55 9.85 -4.35 8.65 -4.6 7.7 -5.1 5.75 -7.25 7.0 -7.75 7.25 -7.75 8.05 -7.7 8.85 -7.15 8.95 -6.4 9.2 -5.7 7.8" fill="#344f1d" fill-rule="evenodd" stroke="none"/>
    </g>
  </defs>
</svg>
